X:1
T:Title
%%score { ( 1 3 ) | ( 2 4 ) }
L:1/8
M:6/4
K:G
V:1 treble nm="Grand Piano"
V:3 treble 
V:2 bass 
V:4 bass 
V:1
 z6 z4 D2 | G3 G G2 G2 D2 G2 | B2 B2 B2 B4 G2 | [FA]3 [FA] [FA]2 [FA]2 [DG]2 [DA]2 | %4
 [DB]2 [B,G]2 [CE]2 [B,D]4 [B,D]2 | G3 G G2 G2 D2 G2 | B2 B2 B2 B4 G2 | %7
 [EA]3 [EA] [EA]2 [Ec]2 [EB]2 [EA]2 | G2 A2 F2 [B,DG]6 | .d12 | G12 | .c12 | A12 | %13
 d2 d2 d2 d2 c2 B2 | A2 A2 B2 c4 [Ge]2 | [Gd]3 [Gd] [Gd]2 [Gd]2 [DGB]2 [B,G]2 | %16
[M:5/4] [CFA]2 [B,DG]2 [A,DF]2 [B,DG]4 |] %17
V:2
 z6 z4 [G,B,]2 | [G,B,D]3 [G,B,D] [G,B,D]2 [G,B,D]2 [G,B,]2[K:treble] [G,B,D]2 | %2
 [G,DG]2 [G,DG]2 [G,DG]2 [G,DG]4[K:bass] [G,B,D]2 | [D,D]3 [D,D] [D,D]2 [D,C]2 [D,B,]2 [D,F,]2 | %4
 [G,,G,]2 [G,,G,]2 [G,,G,]2 [G,,G,]4 [G,,G,]2 | %5
 [G,B,D]3 [G,B,D] [G,B,D]2 [G,B,D]2 [G,B,]2[K:treble] [G,B,D]2 | %6
 [G,DG]2 [G,DG]2 [G,DG]2 [G,DG]4[K:bass] [G,B,D]2 | %7
 [C,A,]3 [C,A,] [C,A,]2 [A,,A,]2 [B,,^G,]2 [C,A,]2 | [D,B,D]2 [D,CD]2 [D,A,D]2 [G,,G,]6 | %9
 [G,B,G]2 [G,B,]2 [G,B,]2 .[G,B,]6 | [G,B,D]2[K:bass] [G,B,]2 [G,B,]2 .[G,B,]6 | %11
 [D,A,]2 [D,A,]2 [D,A,]2 [D,A,]2 [D,A,]2 [D,A,]2 | z6 z4[K:treble] .D2 | %13
 [G,B,G]2 [G,B,G]2 [G,B,G]2 [G,B,G]2 [G,EG]2 [G,DG]2 | [CE]2 [CE]2[K:bass] [B,DE]2 [A,CE]4 [C,C]2 | %15
 [D,B,]3 [D,B,] [D,B,]2 [D,B,]2 D,2 D,2 |[M:5/4] D,2 D,2 D,2 G,4 |] %17
V:3
 x12 | x12 | x12 | x12 | x12 | x12 | x12 | x12 | x12 | z2 G2 G2 G2 e2 d2 | z2 D2 D2 .D6 | %11
 F2 F2 F2 F2 [Fd]2 [Fc]2 | F2 F2 F2 F4 Bc | x12 | x12 | x12 |[M:5/4] x10 |] %17
V:4
 x12 | x10[K:treble] x2 | x10[K:bass] x2 | x12 | x12 | x10[K:treble] x2 | x10[K:bass] x2 | x12 | %8
 x12 | x12 | x2[K:bass] x10 | x12 | [D,D]2 [D,D]2 [D,D]2 [D,D]4[K:treble] [G,G]-[G,CG] | x12 | %14
 x4[K:bass] x8 | x12 |[M:5/4] x10 |] %17

